archdroid-icon-theme/Archdroid-Cyan/devices/scalable/xfce-display-extend.svg

<?xml version="1.0" encoding="UTF-8" standalone="no"?>
<svg
   xmlns:dc="http://purl.org/dc/elements/1.1/"
   xmlns:cc="http://creativecommons.org/ns#"
   xmlns:rdf="http://www.w3.org/1999/02/22-rdf-syntax-ns#"
   xmlns:svg="http://www.w3.org/2000/svg"
   xmlns="http://www.w3.org/2000/svg"
   xmlns:sodipodi="http://sodipodi.sourceforge.net/DTD/sodipodi-0.dtd"
   xmlns:inkscape="http://www.inkscape.org/namespaces/inkscape"
   width="48"
   height="48"
   viewBox="0 0 48 48"
   id="svg2"
   version="1.1"
   inkscape:version="0.91 r13725"
   sodipodi:docname="xfce-display-extend.svg"
   fill="#00BCD4">
  <metadata
     id="metadata10">
    <rdf:RDF>
      <cc:Work
         rdf:about="">
        <dc:format>image/svg+xml</dc:format>
        <dc:type
           rdf:resource="http://purl.org/dc/dcmitype/StillImage" />
        <dc:title />
      </cc:Work>
    </rdf:RDF>
  </metadata>
  <defs
     id="defs8" />
  <sodipodi:namedview
     pagecolor="#ffffff"
     bordercolor="#666666"
     borderopacity="1"
     objecttolerance="10"
     gridtolerance="10"
     guidetolerance="10"
     inkscape:pageopacity="0"
     inkscape:pageshadow="2"
     inkscape:window-width="1366"
     inkscape:window-height="713"
     id="namedview6"
     showgrid="false"
     inkscape:snap-bbox="true"
     inkscape:bbox-nodes="true"
     inkscape:zoom="1.746538499154759"
     inkscape:cx="-116.2621929151332"
     inkscape:cy="-44.68563387574697"
     inkscape:window-x="0"
     inkscape:window-y="30"
     inkscape:window-maximized="1"
     inkscape:current-layer="svg2"
     inkscape:object-paths="true"
     inkscape:snap-intersection-paths="true"
     inkscape:object-nodes="true"
     inkscape:snap-smooth-nodes="true"
     inkscape:snap-midpoints="true"
     inkscape:snap-nodes="false"
     inkscape:snap-page="true"
     showguides="false" />
  <path
     id="path4144"
     style="opacity:1;fill:#00BCD4;fill-opacity:1;fill-rule:nonzero;stroke:none;stroke-width:4;stroke-miterlimit:4;stroke-dasharray:none;stroke-opacity:1"
     d="M 2.728515625,25 C 1.217606489062291,25 3.108624468950438e-14,26.00349999999998 0,27.25 l 0,13.5 C 0,41.99649999999999 1.217606489062291,43 2.728515625,43 L 27.2734375,43 C 28.78434663593771,43 30,41.99649999999999 30,40.75 l 0,-13.5 C 30,26.00349999999998 28.78434663593771,25 27.2734375,25 L 2.728515625,25 Z M 4,29 26,29 26,39 4,39 4,29 Z M 20.728515625,5 C 19.21760648906229,5 18.00000000000001,6.00349999999999 18,7.25 l 0,13.5 C 18,21.99649999999999 19.21760648906229,23 20.728515625,23 L 45.2734375,23 C 46.7843466359377,23 48,21.99649999999999 48,20.75 L 48,7.25 C 48,6.003499999999982 46.7843466359377,5 45.2734375,5 L 20.728515625,5 Z M 22,9 44,9 44,19 22,19 22,9 Z"
     inkscape:connector-curvature="0" />
</svg>

<svg xmlns="http://www.w3.org/2000/svg" viewBox="0 0 48 48" fill="#00BCD4"><path d="m2.729 25c-1.511 0-2.729 1-2.729 2.25v13.5c0 1.246 1.218 2.25 2.729 2.25h24.545c1.511 0 2.727-1 2.727-2.25v-13.5c0-1.247-1.216-2.25-2.727-2.25h-24.545m1.271 4h22v10h-22v-10m16.729-24c-1.511 0-2.729 1-2.729 2.25v13.5c0 1.246 1.218 2.25 2.729 2.25h24.545c1.511 0 2.727-1 2.727-2.25v-13.5c0-1.247-1.216-2.25-2.727-2.25h-24.545m1.271 4h22v10h-22v-10"/></svg>
